X:93
T:McClellan's
Z: id:dc-jig-75
M:6/8
L:1/8
K:D Major
A|d3 dfd|e3 eag|fed ABc|dAF DFA|!
d3 dfd|e3 eag|fed ABc|dfe d2:|!
f|g3 bag|f3 agf|e3 ABc|dfe def|!
g3 bag|f3 agf|e3 ABc|dfe d2:|!

